src/assets/Logo.svg

<svg width="76" height="22" viewBox="0 0 76 22" fill="none" xmlns="http://www.w3.org/2000/svg">
<path fill-rule="evenodd" clip-rule="evenodd" d="M0 0H33.5019L42.3182 11L33.5019 22H0V0ZM15.1088 9.8781C15.0565 9.83654 15.0048 9.79507 14.9535 9.75385C14.8238 9.6497 14.6962 9.54717 14.5649 9.44886C14.2066 9.17794 13.8174 8.96214 13.3711 8.86598C12.8783 8.75925 12.3808 8.72055 11.8893 8.86832C11.1882 9.07825 10.7002 9.53565 10.3777 10.1725C10.1099 10.7026 10.0385 11.2644 10.1087 11.8484C10.1647 12.3058 10.3134 12.7304 10.586 13.1068C11.0049 13.685 11.5762 14.0193 12.2904 14.1072C12.9331 14.187 13.5556 14.1072 14.1447 13.8281C14.3459 13.7325 14.3459 13.7308 14.3459 13.5107V13.5068C14.3459 13.4531 14.346 13.3997 14.3461 13.3462C14.3464 13.2395 14.3466 13.133 14.3459 13.0259C14.3457 13.0044 14.346 12.9861 14.3463 12.9704C14.347 12.9258 14.3473 12.903 14.3359 12.8914C14.3238 12.8792 14.2986 12.8795 14.247 12.8801C14.2341 12.8803 14.2195 12.8805 14.203 12.8805H12.3344C12.3177 12.8805 12.3029 12.8806 12.2898 12.8808C12.2375 12.8814 12.212 12.8817 12.1998 12.8694C12.1882 12.8576 12.1887 12.8345 12.1897 12.7892C12.19 12.7741 12.1904 12.7566 12.1904 12.7362C12.1896 12.2436 12.1899 11.7511 12.1901 11.2585L12.1901 11.2539C12.1903 11.0092 12.1904 10.7644 12.1904 10.5196C12.1904 10.5107 12.1906 10.5016 12.1909 10.4925C12.1914 10.4741 12.192 10.4556 12.1904 10.4375C12.1868 10.3941 12.2023 10.3707 12.2499 10.3754C12.2682 10.3769 12.287 10.3764 12.3057 10.3759L12.3219 10.3755L12.3332 10.3754H17.0571C17.0881 10.3754 17.1143 10.3812 17.1095 10.4199C17.1074 10.4432 17.1222 10.4589 17.1374 10.4749C17.1558 10.4943 17.1747 10.5142 17.1643 10.5489C17.1552 10.5789 17.1575 10.6115 17.1598 10.6443C17.1609 10.6591 17.1619 10.6739 17.1619 10.6885L17.1618 11.5304C17.1616 12.6528 17.1614 13.7756 17.1643 14.8977C17.1643 14.9892 17.1357 15.0466 17.0655 15.1041C16.1859 15.8254 15.1969 16.3297 14.0781 16.5795C13.4163 16.7273 12.7462 16.7683 12.069 16.7144C11.2692 16.651 10.5086 16.4481 9.8064 16.0635C8.51741 15.3574 7.70568 14.2855 7.33196 12.8863C7.16771 12.2683 7.11772 11.6385 7.17009 11.0028C7.36648 8.64549 9.03991 6.80654 11.2823 6.2952C11.9226 6.1486 12.5689 6.12749 13.2211 6.17088C13.721 6.20489 14.2126 6.2823 14.6934 6.42303C15.4135 6.63531 16.049 7.00122 16.6275 7.47034C16.6953 7.52546 16.762 7.58059 16.8274 7.63688C16.9108 7.70725 16.9131 7.74712 16.8405 7.83391C16.4763 8.26785 16.112 8.70081 15.7466 9.13357L15.7458 9.13444C15.564 9.35105 15.3822 9.56766 15.1992 9.78311C15.1945 9.7891 15.1899 9.7953 15.1851 9.80159C15.165 9.82856 15.1435 9.85718 15.1088 9.8781ZM28.1735 7.62632C27.0725 6.63413 25.7609 6.16149 24.4053 6.15093C23.7792 6.15211 23.3115 6.20254 22.8151 6.33037C21.375 6.70215 20.2479 7.49965 19.4992 8.77331C18.7304 10.0798 18.5744 11.4813 19.0041 12.9227C19.4849 14.5341 20.5097 15.7069 22.0951 16.3602C23.3127 16.8609 24.5743 16.9278 25.8466 16.5971C27.3248 16.2136 28.4579 15.3656 29.2006 14.0427C29.8266 12.9274 29.9945 11.7311 29.7612 10.4821C29.5517 9.35971 29.028 8.39802 28.1735 7.62632ZM24.0839 8.83313C23.34 8.84955 22.5735 9.26941 22.0939 10.1455C21.7678 10.7401 21.6916 11.3816 21.8154 12.0443C21.913 12.5673 22.1427 13.0306 22.5235 13.4106C23.1175 14.004 23.8447 14.2374 24.6778 14.1424C25.5395 14.045 26.1799 13.6088 26.5905 12.8593C26.9392 12.2213 27.0118 11.5388 26.8488 10.8363C26.5798 9.67051 25.5931 8.82961 24.0839 8.83313Z" fill="white" fill-opacity="0.3"/>
<path fill-rule="evenodd" clip-rule="evenodd" d="M42.3182 0H76V22H42.3182V0ZM53.6266 11.2735V6.29027C53.6266 6.27294 53.6264 6.25775 53.6262 6.24444C53.6255 6.19689 53.6251 6.1733 53.637 6.16178C53.6487 6.15043 53.6722 6.15078 53.7189 6.15147C53.727 6.15159 53.7358 6.15172 53.7454 6.1518C53.7511 6.15185 53.7572 6.15188 53.7635 6.15188C54.3317 6.1511 54.9004 6.15136 55.4689 6.15162C55.7531 6.15175 56.0373 6.15188 56.3213 6.15188C56.3281 6.15188 56.3349 6.15214 56.3416 6.15241C56.355 6.15293 56.3681 6.15344 56.3808 6.15188C56.4451 6.14484 56.4653 6.17534 56.4593 6.23398C56.4578 6.24961 56.4583 6.26525 56.4588 6.28089L56.4592 6.2929L56.4593 6.30434V16.2591C56.4593 16.2694 56.4594 16.279 56.4596 16.288C56.4597 16.2976 56.4599 16.3065 56.4601 16.3147C56.4611 16.3616 56.4616 16.3857 56.4496 16.3978C56.4371 16.4105 56.4107 16.4102 56.3567 16.4096C56.3428 16.4094 56.3271 16.4092 56.3094 16.4092C55.7467 16.41 55.184 16.4097 54.6217 16.4095H54.6194C54.338 16.4093 54.0566 16.4092 53.7754 16.4092C53.7675 16.4092 53.7596 16.4089 53.7516 16.4087C53.7358 16.4081 53.7199 16.4076 53.704 16.4092C53.6374 16.4186 53.6219 16.3846 53.6266 16.3271C53.6282 16.3068 53.6277 16.286 53.6272 16.2651C53.6269 16.2545 53.6266 16.2439 53.6266 16.2333V11.2735ZM67.7353 6.15222H63.5101H63.5086C62.1011 6.15222 60.6936 6.15222 59.2872 6.15105C59.2765 6.15105 59.2658 6.15118 59.2553 6.15131C59.2342 6.15157 59.2134 6.15183 59.192 6.15105C59.1444 6.1487 59.1277 6.17099 59.1313 6.21438C59.1321 6.22763 59.1318 6.24036 59.1316 6.25326C59.1314 6.25977 59.1313 6.26633 59.1313 6.27302V8.65381C59.1313 8.72194 59.129 8.75306 59.1436 8.76713C59.1585 8.78139 59.1909 8.77812 59.261 8.77812H61.9152C62.0015 8.77812 62.0444 8.77812 62.0656 8.79911C62.0866 8.81979 62.0866 8.86083 62.0866 8.94232V16.2829C62.0866 16.3505 62.0824 16.3819 62.0964 16.3963C62.1103 16.4107 62.1422 16.4084 62.2139 16.4084H62.2496H64.761C64.8406 16.4084 64.8802 16.4084 64.8998 16.389C64.9193 16.3698 64.9193 16.3317 64.9193 16.2559V8.91534C64.9193 8.84117 64.9146 8.80714 64.9297 8.79165C64.9449 8.77604 64.9803 8.7793 65.0609 8.7793H67.7627C67.8793 8.7793 67.8793 8.7793 67.8805 8.66553V8.63035V6.29648C67.8805 6.21469 67.885 6.17866 67.8689 6.16306C67.8529 6.14756 67.8166 6.15222 67.7353 6.15222Z" fill="white" fill-opacity="0.3"/>
</svg>

<svg xmlns="http://www.w3.org/2000/svg" width="76" height="22" fill="#fff"><path fill="#fff" fill-opacity=".3" fill-rule="evenodd" d="M0 0h33.502l8.816 11-8.816 11H0V0Zm15.109 9.878a36.703 36.703 0 0 1-.155-.124c-.13-.104-.258-.207-.39-.305-.357-.271-.747-.487-1.193-.583-.493-.107-.99-.145-1.482.002-.7.21-1.189.668-1.511 1.304-.268.53-.34 1.092-.27 1.676.057.458.205.882.478 1.259.419.578.99.912 1.704 1 .643.08 1.266 0 1.855-.279.2-.095.2-.097.2-.317v-.004l.001-.16a34.206 34.206 0 0 0 0-.377c.001-.044.001-.067-.01-.079-.012-.012-.037-.011-.089-.01H12.29c-.052 0-.078 0-.09-.012-.012-.011-.011-.034-.01-.08v-1.535a898.478 898.478 0 0 0 0-.761c.001-.019.002-.037 0-.056-.003-.043.012-.066.06-.062a.518.518 0 0 0 .056 0h4.751c.031 0 .057.006.053.045-.003.023.012.039.027.055.019.02.038.04.027.074-.009.03-.007.063-.004.095a.6.6 0 0 1 .002.044v.842c0 1.123 0 2.246.002 3.368a.238.238 0 0 1-.099.206 7.099 7.099 0 0 1-2.987 1.476 6.72 6.72 0 0 1-2.009.134c-.8-.063-1.56-.266-2.263-.65-1.289-.707-2.1-1.778-2.474-3.178a5.522 5.522 0 0 1-.162-1.883c.196-2.358 1.87-4.196 4.112-4.708.64-.146 1.287-.168 1.94-.124.499.034.99.111 1.471.252.72.212 1.356.578 1.935 1.047.067.055.134.11.2.167.083.07.085.11.012.197l-1.093 1.3h-.001l-.547.65c-.005.005-.01.011-.014.018a.269.269 0 0 1-.076.076Zm13.065-2.252a5.608 5.608 0 0 0-3.769-1.475c-.626.001-1.094.052-1.59.18-1.44.371-2.567 1.169-3.316 2.442-.769 1.307-.925 2.708-.495 4.15.48 1.611 1.506 2.784 3.091 3.437 1.218.5 2.48.568 3.752.237 1.478-.383 2.61-1.231 3.354-2.554.626-1.116.793-2.312.56-3.56a4.985 4.985 0 0 0-1.587-2.857Zm-4.09 1.207c-.744.017-1.51.436-1.99 1.313-.326.594-.402 1.236-.279 1.898.098.523.328.987.708 1.367.595.593 1.322.826 2.155.731.861-.097 1.502-.533 1.912-1.283.35-.638.422-1.32.259-2.023-.27-1.165-1.256-2.006-2.765-2.003Z" clip-rule="evenodd"/><path fill="#fff" fill-opacity=".3" fill-rule="evenodd" d="M42.318 0H76v22H42.318V0Zm11.309 11.274v-5.03c-.002-.047-.002-.07.01-.082.012-.012.035-.011.082-.01a3.983 3.983 0 0 0 .044 0h2.618c.064-.007.084.023.078.082-.001.016 0 .031 0 .047v9.978a1.303 1.303 0 0 0 .001.056c.001.047.002.07-.01.083-.013.012-.04.012-.093.012h-2.582l-.023-.001a.344.344 0 0 0-.048 0c-.067.01-.082-.024-.077-.082v-5.054Zm14.108-5.122H63.51l-4.222-.001h-.095c-.048-.002-.064.02-.06.063v2.439c0 .069-.003.1.012.114.014.014.047.011.117.011h2.654c.087 0 .13 0 .15.021.022.02.022.062.022.143v7.34c0 .069-.005.1.01.114.013.015.045.012.117.012h2.547c.08 0 .12 0 .139-.019.02-.02.02-.057.02-.133v-7.34c0-.075-.005-.109.01-.124.015-.016.05-.013.13-.013h2.703c.116 0 .116 0 .117-.113v-2.37c0-.081.005-.117-.011-.133-.016-.015-.052-.01-.134-.01Z" clip-rule="evenodd"/></svg>
